!!!COM: Martin, Frank
!!!OTL: [T558_Mai-w24p31h6m3-9]
**kern	**dynam	**kern	**dynam	**kern	**dynam	**kern	**dynam	**kern	**dynam	**kern	**dynam	**kern	**dynam	**kern	**text	**kern	**kern	**dynam	**kern	**dynam	**kern	**dynam	**kern	**dynam	**kern	**dynam	**kern	**dynam
*grp:A	*grp:A	*grp:A	*grp:A	*grp:A	*grp:A	*grp:A	*grp:A	*grp:B	*grp:B	*grp:A	*grp:A	*grp:A	*grp:A	*grp:B	*grp:B	*grp:A	*grp:A	*grp:A	*grp:A	*grp:A	*grp:A	*grp:A	*grp:A	*grp:A	*grp:A	*grp:A	*grp:A	*grp:A
*part14	*part14	*part13	*part13	*part12	*part12	*part11	*part11	*part10	*part10	*part9	*part9	*part8	*part8	*part7	*part7	*part6	*part6	*part6	*part5	*part5	*part4	*part4	*part3	*part3	*part2	*part2	*part1	*part1
*staff15	*staff15	*staff14	*staff14	*staff13	*staff13	*staff12	*staff12	*staff11	*staff11	*staff10	*staff10	*staff9	*staff9	*staff8	*staff8	*staff7	*staff6	*staff6	*staff5	*staff5	*staff4	*staff4	*staff3	*staff3	*staff2	*staff2	*staff1	*staff1
*I"Contrabass	*I"Contrabass	*I"Violoncello	*I"Violoncello	*I"Violoncello	*I"Violoncello	*I"Viola	*I"Viola	*I"Viola	*I"Viola	*I"Violin II	*I"Violin II	*I"Violin I	*I"Violin I	*I"Alto Solo	*I"Alto Solo	*I"Piano	*I"Piano	*I"Piano	*I"Trombone	*staff5	*I"Horn in F	*I"Horn in F	*I"Horn in F	*I"Horn in F	*I"Bassoon	*I"Bassoon	*I"Alto Saxophone	*I"Alto Saxophone
*I'Cb.	*	*I'Vc.	*	*I'Vc.	*	*I'Vla.	*	*I'Vla.	*	*I'Vln. II	*	*I'Vln. I	*	*I'A.	*	*I'Pno.	*	*	*I'Tbn.	*	*I'Hn.	*	*I'Hn.	*	*I'Bsn.	*	*I'Alto Sax.	*
!!pagebreak:original
*clefF4	*	*clefF4	*	*clefF4	*	*clefC3	*	*clefC3	*	*clefG2	*	*clefG2	*	*clefG2	*	*clefF4	*clefF4	*	*clefF4	*	*clefG2	*	*clefG2	*	*clefF4	*	*clefG2	*
*ITrd7c12	*	*	*	*	*	*	*	*	*	*	*	*	*	*	*	*	*	*	*	*	*ITrd4c7	*	*ITrd4c7	*	*	*	*ITrd5c9	*
*k[]	*	*k[]	*	*k[]	*	*k[]	*	*k[]	*	*k[]	*	*k[]	*	*k[]	*	*k[]	*k[]	*	*k[]	*	*k[b-]	*	*k[b-]	*	*k[]	*	*k[b-e-a-]	*
*	*	*	*	*	*	*	*	*	*	*	*	*	*	*	*	*	*	*	*	*	*	*	*	*	*	*	*	*
*M3/4	*	*M3/4	*	*M3/4	*	*M3/4	*	*M3/4	*	*M3/4	*	*M3/4	*	*M3/4	*	*M3/4	*M3/4	*	*M3/4	*	*M3/4	*	*M3/4	*	*M3/4	*	*M3/4	*
=1	=1	=1	=1	=1	=1	=1	=1	=1	=1	=1	=1	=1	=1	=1	=1	=1	=1	=1	=1	=1	=1	=1	=1	=1	=1	=1	=1	=1
*	*	*	*	*	*	*^	*	*	*	*	*	*	*	*	*	*	*	*	*	*	*	*	*	*	*	*	*	*
!	!LO:DY:t=meno %s	!	!LO:DY:t=meno %s	!	!LO:DY:t=meno %s	!LO:TX:a:rj:t=Div.	!	!LO:DY:t=meno %s	!	!LO:DY:ed=brack	!	!LO:DY:t=meno %s	!	!LO:DY:t=meno %s	!	!	!	!	!LO:DY:t=meno %s	!	!	!	!	!	!	!	!	!	!
4EE-X'	p	4BB-X'	p	4G-X'	p	4B-X'	4G-X'	p	8r	f	4d-X'	p	4f'	p	4b-X	Pac-	4EE-X' 4BB-X	4G-X' 4B-X 4d-X 4f	p	4%3r	.	4%3r	.	4%3r	.	4%3r	.	4%3r	.
.	.	.	.	.	.	.	.	.	8b-X	.	.	.	.	.	.	.	.	.	.	.	.	.	.	.	.	.	.	.	.
4r	.	4r	.	4r	.	4r	4ryy	.	8b-L	.	4r	.	4r	.	4b-	-ken	4r	4r	.	.	.	.	.	.	.	.	.	.	.
.	.	.	.	.	.	.	.	.	8a	.	.	.	.	.	.	.	.	.	.	.	.	.	.	.	.	.	.	.	.
!	!LO:HP:t=poco cresc.	!	!LO:HP:t=poco cresc.	!	!LO:HP:t=poco cresc.	!	!	!LO:HP:t=poco cresc.	!	!	!	!LO:HP:t=poco cresc.	!	!LO:HP:t=poco cresc.	!	!	!	!	!LO:HP:t=poco crescendo	!	!	!	!	!	!	!	!	!	!
4EE-'	<	4BB-'	<	4G-'	<	4B-'	4G-'	<	8a	.	4d-'	<	4f'	<	4b-	die	4EE-' 4BB-	4G-' 4B- 4d- 4f	<	.	.	.	.	.	.	.	.	.	.
.	.	.	.	.	.	.	.	.	8AJ	.	.	.	.	.	.	.	.	.	.	.	.	.	.	.	.	.	.	.	.
=2	=2	=2	=2	=2	=2	=2	=2	=2	=2	=2	=2	=2	=2	=2	=2	=2	=2	=2	=2	=2	=2	=2	=2	=2	=2	=2	=2	=2	=2
!	!	!	!	!	!	!	!	!	!	!LO:HP:t=crecsendo	!	!	!	!	!	!	!	!	!	!	!	!	!	!	!	!	!	!LO:TX:a:B:t=Poco a poco animando	!
4r	.	4r	.	4r	.	4r	4ryy	.	8AL	<	4r	.	4r	.	2f	Dir-	4r	4r	.	4%3r	.	4%3r	.	4%3r	.	4%3r	.	4%3r	.
.	.	.	.	.	.	.	.	.	8A	.	.	.	.	.	.	.	.	.	.	.	.	.	.	.	.	.	.	.	.
4DD'	.	4AA'	.	4F'	.	4A'	4F'	.	8g#X	.	4c'	.	4e'	.	.	.	4DD' 4AA	4F' 4A 4c 4e	.	.	.	.	.	.	.	.	.	.	.
.	.	.	.	.	.	.	.	.	8A	.	.	.	.	.	.	.	.	.	.	.	.	.	.	.	.	.	.	.	.
4r	.	4r	.	4r	.	4r	4ryy	.	8A	.	4r	.	4r	.	4f	-nen	4r	4r	.	.	.	.	.	.	.	.	.	.	.
.	.	.	.	.	.	.	.	.	8g#J	.	.	.	.	.	.	.	.	.	.	.	.	.	.	.	.	.	.	.	.
=3	=3	=3	=3	=3	=3	=3	=3	=3	=3	=3	=3	=3	=3	=3	=3	=3	=3	=3	=3	=3	=3	=3	=3	=3	=3	=3	=3	=3	=3
4DD-X'	.	4AA-X'	.	4F-X'	.	4A-X'	4F-X'	.	8r	.	4c-X'	.	4e-X'	.	[2.a-X	heiss,	4DD-X' 4AA-X	4F-X' 4A-X 4c-X 4e-X	.	4%3r	.	4%3r	.	4%3r	.	4%3r	.	4%3r	.
.	.	.	.	.	.	.	.	.	8Gn	.	.	.	.	.	.	.	.	.	.	.	.	.	.	.	.	.	.	.	.
4DD-'	.	4AA-'	.	4F-'	.	4A-'	4F-'	.	8GL	.	4c-'	.	4e-'	.	.	.	4DD-' 4AA-	4F-' 4A- 4c- 4e-	.	.	.	.	.	.	.	.	.	.	.
.	.	.	.	.	.	.	.	.	8B-X	.	.	.	.	.	.	.	.	.	.	.	.	.	.	.	.	.	.	.	.
4r	.	4r	.	4r	.	4r	4ryy	.	8B-	.	4r	.	4r	.	.	.	4r	4r	.	.	.	.	.	.	.	.	.	.	.
.	.	.	.	.	.	.	.	.	8BnJ	.	.	.	.	.	.	.	.	.	.	.	.	.	.	.	.	.	.	.	.
=4	=4	=4	=4	=4	=4	=4	=4	=4	=4	=4	=4	=4	=4	=4	=4	=4	=4	=4	=4	=4	=4	=4	=4	=4	=4	=4	=4	=4	=4
4DD-X'	.	4AA-X'	.	4F-X'	.	4A-X'	4F-X'	.	8dL	.	4c-X'	.	4e-X'	.	4a-]	.	4DD-X' 4AA-X	4F-X' 4A-X 4c-X 4e-X	.	4%3r	.	4%3r	.	4%3r	.	4%3r	.	4%3r	.
.	.	.	.	.	.	.	.	.	8f#X	.	.	.	.	.	.	.	.	.	.	.	.	.	.	.	.	.	.	.	.
4DD-'	.	4AA-'	.	4F-'	.	4A-'	4F-'	.	8f#	.	4c-'	.	4e-'	.	4r	.	4DD-' 4AA-	4F-' 4A- 4c- 4e-	.	.	.	.	.	.	.	.	.	.	.
.	.	.	.	.	.	.	.	.	8g	.	.	.	.	.	.	.	.	.	.	.	.	.	.	.	.	.	.	.	.
4r	.	4r	.	4r	.	4r	4ryy	.	8b-X	.	4r	.	4r	.	4a-X	dass	4r	4r	.	.	.	.	.	.	.	.	.	.	.
.	.	.	.	.	.	.	.	.	8bnJ	.	.	.	.	.	.	.	.	.	.	.	.	.	.	.	.	.	.	.	.
=5	=5	=5	=5	=5	=5	=5	=5	=5	=5	=5	=5	=5	=5	=5	=5	=5	=5	=5	=5	=5	=5	=5	=5	=5	=5	=5	=5	=5	=5
4CC'	.	4GG'	.	4E-X'	.	4G'	4E-X'	.	8ddL	.	4B-X'	.	4d'	.	4b-X	ih-	4CC' 4GG	4E-X' 4G 4B-X 4dn	.	4%3r	.	4%3r	.	4%3r	.	4%3r	.	4%3r	.
.	.	.	.	.	.	.	.	.	8f#X	.	.	.	.	.	.	.	.	.	.	.	.	.	.	.	.	.	.	.	.
4r	.	4r	.	4r	.	4r	4ryy	.	8G	.	4r	.	4r	.	4b-	-nen	4r	4r	.	.	.	.	.	.	.	.	.	.	.
.	.	.	.	.	.	.	.	.	8f#	.	.	.	.	.	.	.	.	.	.	.	.	.	.	.	.	.	.	.	.
4CC'	.	4GG'	.	4E-'	.	4G'	4E-'	.	8dd	.	4B-'	.	4d'	.	4b-	die	4CC' 4GG	4E-' 4G 4B- 4d	.	.	.	.	.	.	.	.	.	.	.
.	.	.	.	.	.	.	.	.	8dd-XJ	.	.	.	.	.	.	.	.	.	.	.	.	.	.	.	.	.	.	.	.
=6	=6	=6	=6	=6	=6	=6	=6	=6	=6	=6	=6	=6	=6	=6	=6	=6	=6	=6	=6	=6	=6	=6	=6	=6	=6	=6	=6	=6	=6
!	!	!	!	!	!	!	!	!	!	!	!	!	!	!	!	!	!	!	!	!LO:TX:b:i:t=dolce	!	!LO:TX:b:i:t=dolce	!	!LO:TX:b:i:t=dolce	!	!LO:TX:b:i:t=dolce	!	!LO:TX:b:i:t=dolce	!
(4.BBB	<	(4.FF#X	<	(4.D	<	(4.F#X	(4.D	<	8r	.	(4.A	<	(4.c#X	<	4dd-X	Klei-	4.BBB 4.FF#X	(4.D 4.F#X 4.A 4.c#X	<	(4.D	.	(4.A	.	(4.c#X	.	(4.FF#X	.	(4.F#X	.
.	.	.	.	.	.	.	.	.	8G	.	.	.	.	.	.	.	.	.	.	.	.	.	.	.	.	.	.	.	.
.	.	.	.	.	.	.	.	.	8e-XL	.	.	.	.	.	4dd-	-der	.	.	.	.	<	.	<	.	<	.	<	.	<
4.BBB-X)	.	4.FFn)	.	4.D-X)	.	4.Fn)	4.D-X)	.	8d	.	4.A-X)	.	4.cn)	.	.	.	4.BBB-X 4.FFn	4.D-X 4.Fn 4.A-X 4.cn)	.	4.D-X	.	4.A-X	.	4.c	.	4.FFn	.	4.F	.
.	.	.	.	.	.	.	.	.	8f	.	.	.	.	.	4dd-	ger-	.	.	.	.	.	.	.	.	.	.	.	.	.
.	[[	.	[[	.	[[	.	.	[[	8aJ	.	.	[[	.	[[	.	.	.	.	[[	.	[[	.	[[	.	[[	.	[[	.	[[
=7	=7	=7	=7	=7	=7	=7	=7	=7	=7	=7	=7	=7	=7	=7	=7	=7	=7	=7	=7	=7	=7	=7	=7	=7	=7	=7	=7	=7	=7
4AAA'	.	4EE'	.	4C'	.	4E'	4C'	.	8ddL	.	4G'	.	4B'	.	4een	-reis-	4AAA' 4EE	4Cn' 4E 4G 4B	.	4C')	mf	4G')	mf	4BX')	mf	4EE')	mf	4EX')	mf
.	.	.	.	.	.	.	.	.	8cc	.	.	.	.	.	.	.	.	.	.	.	.	.	.	.	.	.	.	.	.
!	!LO:HP:t=più cresc.	!	!LO:HP:t=più cresc.	!	!LO:HP:t=più cresc.	!	!	!LO:HP:t=più cresc.	!	!	!	!LO:HP:t=più cresc.	!	!LO:HP:t=più cresc.	!	!	!	!	!LO:HP:t=più cresc.	!	!	!	!	!	!	!	!	!	!
4r	<	4r	<	4r	<	4r	4ryy	<	8e#X	.	4r	<	4r	<	4ee	-sen	4r	4r	<	4r	.	4r	.	4r	.	4r	.	4r	.
.	.	.	.	.	.	.	.	.	8d	.	.	.	.	.	.	.	.	.	.	.	.	.	.	.	.	.	.	.	.
4AAA'	.	4EE'	.	4C'	.	4E'	4C'	.	(8c	.	4G'	.	4B'	.	4r	.	4AAA' 4EE	4C' 4E 4G 4B	.	4r	.	4r	.	4r	.	4r	.	4r	.
.	.	.	.	.	.	.	.	.	8E#XJ)	.	.	.	.	.	.	.	.	.	.	.	.	.	.	.	.	.	.	.	.
*	*	*	*	*	*	*v	*v	*	*	*	*	*	*	*	*	*	*	*	*	*	*	*	*	*	*	*	*	*	*
=	=	=	=	=	=	=	=	=	=	=	=	=	=	=	=	=	=	=	=	=	=	=	=	=	=	=	=	=
*-	*-	*-	*-	*-	*-	*-	*-	*-	*-	*-	*-	*-	*-	*-	*-	*-	*-	*-	*-	*-	*-	*-	*-	*-	*-	*-	*-	*-
!!!system-decoration: [(s1,s2)][([(s3,s4)]s5)][({(s6,s7)})]s8[(s9,s10[(s11,s12)][(s13,s14)]s15)]
